X: 1
T: A is 4 Ada
C: Marcia Landa 2018
R: reel
Z: 2018 John Chambers <jc:trillian.mit.edu>
M: C|
L: 1/8
K: A
|:\
"A"A2cA "Bm"BAcA | "C#m"BAFG "D"AFEF | "A"A2cA "Bm"BAce | "D"fecB "C#m"c2ce | "D"f2af "A"ecBc |
"C#m"ecBc "D"AFEF | "A"A2cA "D"BAFG | A4 z2 [1 EF :|[2 AG | "F#m"F2Ac fafc | "C#m"ecBc eA2G |
"F#m"F2Ac fafc | "E"E4 z2AG | "D"F2Ad fafd | "C#m"ecBA c2cB | "D"A2cA "Bm"BAFG | A4 z2 [1 AG :|2EF :|

%%sep 1 1 500

